packages/ffe-icons/icons/open/300/sm/shelf_position.svg

<svg xmlns="http://www.w3.org/2000/svg" height="20" viewBox="0 -960 960 960" width="20"><path d="M228.309-164.001q-26.308 0-45.308-18.65t-19-45.658v-503.382q0-26.308 19-45.308t45.308-19h503.382q26.308 0 45.308 19t19 45.308v503.382q0 27.008-19 45.658-19 18.65-45.308 18.65H228.309Zm515.691-170H216v105.692q0 4.616 3.846 8.463 3.847 3.846 8.463 3.846h503.382q4.616 0 8.463-3.846 3.846-3.847 3.846-8.463v-105.692Zm-103.693-51.998H744v-345.692q0-4.616-3.846-8.463-3.847-3.846-8.463-3.846h-91.384v358.001Zm-424.307 0h103.693V-744h-91.384q-4.616 0-8.463 3.846-3.846 3.847-3.846 8.463v345.692Zm155.691 0h216.618V-744H371.691v358.001Z"/></svg>

<svg xmlns="http://www.w3.org/2000/svg" height="20" viewBox="0 -960 960 960" width="20"><path d="M228.31-164Q202-164 183-182.65q-19-18.65-19-45.66v-503.38Q164-758 183-777q19-19 45.31-19h503.38Q758-796 777-777q19 19 19 45.31v503.38q0 27.01-19 45.66Q758-164 731.69-164H228.31ZM744-334H216v105.69q0 4.62 3.85 8.46 3.84 3.85 8.46 3.85h503.38q4.62 0 8.46-3.85 3.85-3.84 3.85-8.46V-334Zm-103.69-52H744v-345.69q0-4.62-3.85-8.46-3.84-3.85-8.46-3.85h-91.38v358ZM216-386h103.69v-358h-91.38q-4.62 0-8.46 3.85-3.85 3.84-3.85 8.46V-386Zm155.69 0h216.62v-358H371.69v358Z"/></svg>
